X: 548
T: Norah Greenah
O: Irish
%R: jig
B: "Twenty Four Country Dances for the Year 1805", Tho. Preston, ed. p.234 #2
F: http://folkopedia.efdss.org/images/archive/0/02/20121211105513%21Preston_24_1805.PDF
Z: 2014 John Chambers <jc:trillian.mit.edu>
M: 6/8
L: 1/8
K: Am
|:\
ABA A2d | c2A e2c | ABA A2c | B2c d2c |\
ABA A2d | c2A e2c | BdB {a}gfg | B2c d2c :|
|:\
efe e2d | c2A e2c | efe e2c | B2c d2c |\
efe e2d | c2A e2c | BcB gfg | B2c dBG :|
%%begintext align
%% Lead down the middle up again and turn
%% your partner then swing corners.
%%endtext

%%sep 1 1 500
%%sep 1 1 500
